X: 11242
T: QUICK STEP FROM "THE BATTLE OF PRAGUE."
C: Kotzwarra.
%R: quick-step, march
B: W. Hamilton "Universal Tune-Book" Vol. 1 Glasgow 1844 p.124 #2
S: http://imslp.org/wiki/Hamilton's_Universal_Tune-Book_(Various)
Z: 2016 John Chambers <jc:trillian.mit.edu>
M: 2/4
L: 1/16
K: C
%%slurgraces yes
%%graceslurs yes
% - - - - - - - - - - - - - - - - - - - - - - - - -
|:\
g3fe2e2 | e3dc2c2 | d2c2d2B2 | cded cdef |\
g3fe2e2 | e3dc2c2 | d2c2d2B2 | c4 c4 :|\
|:\
d4 e4 | {g}f2fe d2d2 | e4 f4 | g2gf e2g2 |\
g3ff2e2 | g2f2f2e2 | g2ag f2e2 | e4 "^D.C."d4 |]
% - - - - - - - - - - - - - - - - - - - - - - - - -

%%sep 1 1 500
%%sep 1 1 500

